resources/svg/ethereum.svg

<svg width="15" height="15" viewBox="0 0 15 15" fill="none" xmlns="http://www.w3.org/2000/svg">
<path fill-rule="evenodd" clip-rule="evenodd" d="M7.5 0C7.64839 0 7.78911 0.0659115 7.88411 0.179908L12.8841 6.17991C13.0224 6.34585 13.0385 6.58183 12.924 6.765L7.924 14.765C7.83263 14.9112 7.67239 15 7.5 15C7.3276 15 7.16737 14.9112 7.076 14.765L2.076 6.765C1.96152 6.58183 1.97761 6.34585 2.11589 6.17991L7.11589 0.179908C7.21089 0.0659115 7.35161 0 7.5 0ZM3.24096 6.74213L7.5 5.03852L11.759 6.74213L7.5 13.5566L3.24096 6.74213ZM10.8506 5.30171L7.5 3.96148L4.14943 5.30171L7.5 1.28102L10.8506 5.30171Z" fill="black"/>
</svg>

<svg viewBox="0 0 15 15" fill="none" xmlns="http://www.w3.org/2000/svg" fill="currentColor"><path fill-rule="evenodd" clip-rule="evenodd" d="M7.5 0a.5.5 0 01.384.18l5 6a.5.5 0 01.04.585l-5 8a.5.5 0 01-.848 0l-5-8a.5.5 0 01.04-.585l5-6A.5.5 0 017.5 0zM3.241 6.742L7.5 5.04l4.259 1.703L7.5 13.557 3.241 6.742zm7.61-1.44L7.5 3.962l-3.35 1.34L7.5 1.28l3.35 4.02z" fill="currentColor"/></svg>
